X: 1
T: Dusty Bob's Jig
T: Jack's Alive
O: Old MS circa 1820
R: jig p.72
B: Cole
Z: John Chambers <jc@trillian.mit.edu>
M: 6/8
L: 1/8
K: G
|: D \
|| "G"G2G GAB | "D"A2A ABc | "G"d2B "D7"c2A | "G"B2G "D7"AFD \
|  "G"G2G GAB | "D"A2A ABc | "G"dBG "D7"cAF | "G"G3- G2 :|
[| d \
|| "G"g2g gag | "B7"f2f fgf | "C"e2d efg | "D7"a2g fed \
|  "G"g2g gag | "B7"f2f fgf | "C"efg "D7"fga | "G"g3- g2d ||
|| "G"g2g gag | "B7"f2f fgf | "C"e2d efg | "D7"a2g fed \
|  "G"g2d Bcd | "C"e2c ABc | "G"dcB "D7"AGF | "G"G3- G2 |]
